symbols/web/headphones/materialsymbolssharp/headphones_wght100gradN25fill1_48px.svg

<svg xmlns="http://www.w3.org/2000/svg" height="48" width="48"><path d="M8.6 39.4V24q0-3.2 1.2-6t3.3-4.9Q15.2 11 18 9.8q2.8-1.2 6-1.2t6.025 1.2q2.825 1.2 4.9 3.3Q37 15.2 38.2 18q1.2 2.8 1.2 6v15.4h-6.5V28.55h5.4V24q0-5.95-4.175-10.125T24 9.7q-5.95 0-10.125 4.175T9.7 24v4.55h5.4V39.4Z"/></svg>

<svg xmlns="http://www.w3.org/2000/svg" height="48" width="48"><path d="M8.6 39.4V24Q8.6 20.8 9.8 18Q11 15.2 13.1 13.1Q15.2 11 18 9.8Q20.8 8.6 24 8.6Q27.2 8.6 30.025 9.8Q32.85 11 34.925 13.1Q37 15.2 38.2 18Q39.4 20.8 39.4 24V39.4H32.9V28.55H38.3V24Q38.3 18.05 34.125 13.875Q29.95 9.7 24 9.7Q18.05 9.7 13.875 13.875Q9.7 18.05 9.7 24V28.55H15.1V39.4Z"/></svg>
